X:1
T:Filli, se morto
T:Stefano Landi
T:Source : Arie---Quinto libro---Venetia---B.Magni---1637. Editor : André Vierendeels (09/02/17).
T:Notes : Original clefs: C1, F4 Original note values have been halved Figures in BC are notated in original print "Littere  per la Chitarra": continuo  proposed by the editor Poesia dei Sig. Francesco della Valle Dotted brackets indicate black notes
T:Filli, se morto
T:©
T:©
C:Stefano Landi
Z:©
%%score 1 { ( 2 3 ) | 4 }
L:1/8
Q:1/4=100
M:6/4
K:F
V:1 treble nm="Soprano" snm="S"
V:2 treble nm="MusicXML Part"
V:3 treble 
V:4 bass 
V:1
 d3 c B2 c2 AB cA | B3 A G2 z2 cB AG | A2 AG FE F2 GF ED | E6 G3 F E2 | F2 DE FD E4 E2 | %5
w: Fil- li se mor- to _ _ _|bra- mi- mi, mo- * * *|rir ec- * * * co ch'io _ _ _|vuo, e de la|mor- te _ _ _ mi- a|
w: Ba- cia- mi, Fil- li _ _ _|ba- cia- mi, com' _ _ _|io ti _ _ _ ba- cie- * * *|ro, ch'ai _ _|suon _ _ _ _ _ di|
w: Mor- di- mi, Fil- li _ _ _|mor- di- mi, com' _ _ _|io ti _ _ _ mor- de- * * *|ro, ch'in _ _|quei _ _ _ _ _ so-|
w: Stin- gi- mi, Fil- li, _ _ _|strin- gi- mi, com' _ _ _|io ti _ _ _ strin- ge- * * *|ro, che _ _|da _ _ _ _ _ tue|
 FE FG F2 GF GA G2 | F2 E3 D D6 | BA Bc B2 cB cd B2 | B2 A3 G !fermata!G6 |] %9
w: il _ _ _ _ mo- * * * *|do gis- ti- do,|il _ _ _ _ mo- * * * *|do gia ti do.|
w: dol- * * * * ci _ _ _ _|ba- * * ci,|di _ _ _ dol- cez- * * * *|za mor- * to.|
w: a- * * * * vi _ _ _ _|mor- * * si,|io _ _ _ mor- to _ _ _ _|re fla- * re.|
w: ba- * * * * ci _ _ _ _|a- stret- * to,,|l'a- * * * ni- ma _ _ _ _|spi- re- * ro.|
V:2
 d3 c B2 c2 d4 | B3 A G2 c3 B AG | A2 c4 A2 G4 | G6 c6 | A2 G4 G6 | F6 d6 | F2 E4 A6 | B6 B6 | %8
 G4 ^F2 !fermata!G6 |] %9
V:3
 F4 G2 E2 A4 | D6 G6 | C2 E4 F2 D4 | E6 G6 | F2 D4 E6 | C6 G6 | D4 ^C2 D6 | F6 G6 | C2 A,4 B,6 |] %9
V:4
 B,3 A, G,2 A,2 ^F,4 | G,6 E,6 |"^6""^7""^6" F,2 E,4 D,2 =B,,4 |"^6" C,6 E,3 D, C,2 | %4
 D,2 =B,,4 C,6 | A,,6 B,,4 G,,2- |"^4 3""^5" G,,2 A,,4 D,6 |"^6" D,6 _E,4 C,2- | %8
"^4 3" C,2 D,4 !fermata!G,,6 |] %9

